frontend/src/assets/icons/phone-call-02.svg

<svg width="24" height="24" viewBox="0 0 24 24" fill="none" xmlns="http://www.w3.org/2000/svg">
<g id="phone-call-02">
<path id="Icon" d="M4.85864 6C6.67357 4.14864 9.20268 3 12.0001 3C14.7975 3 17.3266 4.14864 19.1415 6M16.4723 9C15.3736 7.7725 13.777 7 12 7C10.223 7 8.62647 7.7725 7.52783 9M12 17C13.5105 17 14.9608 17.2576 16.3094 17.7313C16.3542 17.747 16.3767 17.7549 16.412 17.7705C16.7326 17.9118 16.9788 18.2591 17.0058 18.6084C17.0088 18.647 17.0088 18.6811 17.0088 18.7494C17.0088 18.9821 17.0088 19.0985 17.0185 19.1965C17.1122 20.1457 17.8631 20.8966 18.8123 20.9903C18.9103 21 19.0267 21 19.2594 21H19.5044C19.965 21 20.1952 21 20.3868 20.9622C21.1829 20.8053 21.8053 20.1829 21.9622 19.3868C22 19.1952 22 18.965 22 18.5044V18.3062C22 17.831 22 17.5933 21.9493 17.3209C21.8358 16.7119 21.3933 15.9583 20.9166 15.5624C20.7035 15.3854 20.5589 15.3048 20.2698 15.1435C17.822 13.7781 15.0019 13 12 13C8.99812 13 6.17797 13.7781 3.73021 15.1435C3.4411 15.3048 3.29654 15.3854 3.0834 15.5624C2.60675 15.9583 2.16421 16.7119 2.05074 17.3209C2 17.5933 2 17.831 2 18.3062V18.5044C2 18.965 2 19.1952 2.03776 19.3868C2.19469 20.1829 2.81709 20.8053 3.61321 20.9622C3.80476 21 4.03504 21 4.4956 21H4.74057C4.97332 21 5.0897 21 5.18773 20.9903C6.13689 20.8966 6.8878 20.1457 6.98152 19.1965C6.9912 19.0985 6.9912 18.9821 6.9912 18.7494C6.9912 18.6811 6.9912 18.647 6.99418 18.6084C7.02122 18.2591 7.2674 17.9118 7.58798 17.7705C7.62335 17.7549 7.64577 17.747 7.69061 17.7313C9.03921 17.2576 10.4895 17 12 17Z" stroke="black" stroke-width="2" stroke-linecap="round" stroke-linejoin="round"/>
</g>
</svg>

<svg xmlns="http://www.w3.org/2000/svg" width="24" height="24" fill="none" viewBox="0 0 24 24">
  <path stroke="#000" stroke-linecap="round" stroke-linejoin="round" stroke-width="2" d="M4.859 6A9.97 9.97 0 0 1 12 3a9.97 9.97 0 0 1 7.142 3m-2.67 3A5.985 5.985 0 0 0 12 7a5.985 5.985 0 0 0-4.472 2M12 17c1.51 0 2.96.258 4.31.731.044.016.067.024.102.04a1.045 1.045 0 0 1 .597.978c0 .233 0 .35.01.448a2 2 0 0 0 1.793 1.793c.098.01.215.01.447.01h.245c.461 0 .691 0 .883-.038a2 2 0 0 0 1.575-1.575c.038-.192.038-.422.038-.883v-.198c0-.475 0-.713-.05-.985-.114-.61-.557-1.363-1.033-1.759-.214-.177-.358-.257-.647-.418A16.924 16.924 0 0 0 12 13c-3.002 0-5.822.778-8.27 2.143-.289.162-.433.242-.647.42-.476.395-.919 1.149-1.032 1.758-.051.272-.051.51-.051.985v.198c0 .461 0 .691.038.883a2 2 0 0 0 1.575 1.575c.192.038.422.038.883.038h.245c.232 0 .349 0 .447-.01a2 2 0 0 0 1.794-1.793c.01-.098.01-.215.01-.448 0-.068 0-.102.002-.14.027-.35.273-.697.594-.839a1.22 1.22 0 0 1 .103-.039A12.98 12.98 0 0 1 12 17Z"/>
</svg>
